img/facebook.svg

<svg xmlns="http://www.w3.org/2000/svg" preserveAspectRatio="xMidYMid" width="8" height="16"><path d="M7.505 5.181H4.949V3.52c0-.623.417-.769.711-.769h1.803V.009L4.979 0C2.222 0 1.595 2.045 1.595 3.353v1.828H0v2.825h1.595V16h3.354V8.006h2.263l.293-2.825z" fill-rule="evenodd" fill="#828c8e"/></svg>

<svg xmlns="http://www.w3.org/2000/svg" xmlns:xlink="http://www.w3.org/1999/xlink" preserveAspectRatio="xMidYMid" width="8" height="16" viewBox="0 0 8 16">
  <defs>
    <style>

      .cls-2 {
        fill: #828c8e;
      }
    </style>
  </defs>
  <path d="M7.505,5.181 C7.505,5.181 4.949,5.181 4.949,5.181 C4.949,5.181 4.949,3.520 4.949,3.520 C4.949,2.897 5.366,2.751 5.660,2.751 C5.953,2.751 7.463,2.751 7.463,2.751 C7.463,2.751 7.463,0.009 7.463,0.009 C7.463,0.009 4.979,-0.000 4.979,-0.000 C2.222,-0.000 1.595,2.045 1.595,3.353 C1.595,3.353 1.595,5.181 1.595,5.181 C1.595,5.181 -0.000,5.181 -0.000,5.181 C-0.000,5.181 -0.000,8.006 -0.000,8.006 C-0.000,8.006 1.595,8.006 1.595,8.006 C1.595,11.631 1.595,16.000 1.595,16.000 C1.595,16.000 4.949,16.000 4.949,16.000 C4.949,16.000 4.949,11.588 4.949,8.006 C4.949,8.006 7.212,8.006 7.212,8.006 C7.212,8.006 7.505,5.181 7.505,5.181 Z" id="path-1" class="cls-2" fill-rule="evenodd"/>
</svg>
